src/lib/packages/icons/src/assets/filled/papers.svg

<svg width="24" height="24" viewBox="0 0 24 24" fill="none" xmlns="http://www.w3.org/2000/svg">
<path d="M15.261 20.3919C14.917 20.5559 14.5161 20.678 14.0601 20.76L7.49004 21.91C5.30004 22.3 4.00994 21.4 3.62994 19.21L2.09014 10.46C1.70014 8.26999 2.60009 6.98 4.79009 6.59L6.58794 6.27396C6.79294 6.23796 6.97211 6.41698 6.93511 6.62198L5.75909 13.28C5.22909 16.31 6.65901 18.35 9.67901 18.88C9.67901 18.88 14.898 19.797 15.167 19.849C15.499 19.909 15.552 20.2629 15.261 20.3919ZM19.209 3.24399L12.6431 2.08597C10.4551 1.69997 9.16706 2.60095 8.78106 4.78995L8.58013 5.92795L7.23711 13.544C6.85111 15.733 7.75197 17.02 9.94097 17.406L16.5062 18.564C16.5872 18.578 16.6572 18.578 16.7352 18.589C18.7792 18.87 19.996 17.968 20.368 15.86L21.9122 7.10599C22.2992 4.91799 21.398 3.62999 19.209 3.24399Z" fill="currentColor"/>
</svg>

<svg xmlns="http://www.w3.org/2000/svg" width="24" height="24" fill="none"><path fill="currentColor" d="M15.261 20.392a4.738 4.738 0 0 1-1.2.368L7.49 21.91c-2.19.39-3.48-.51-3.86-2.7l-1.54-8.75c-.39-2.19.51-3.48 2.7-3.87l1.798-.316a.3.3 0 0 1 .347.348L5.76 13.28c-.53 3.03.9 5.07 3.92 5.6 0 0 5.219.917 5.488.969.332.06.385.414.094.543Zm3.948-17.148-6.566-1.158c-2.188-.386-3.476.515-3.862 2.704l-.2 1.138-1.344 7.616c-.386 2.189.515 3.476 2.704 3.862l6.565 1.158c.081.014.151.014.23.025 2.043.281 3.26-.621 3.632-2.729l1.544-8.754c.387-2.188-.514-3.476-2.703-3.862Z"/></svg>
